dist/img/surf/small_marker.svg

<svg width="14" height="17" viewBox="0 0 14 17" fill="none" xmlns="http://www.w3.org/2000/svg">
<g opacity="0.299219">
<path fill-rule="evenodd" clip-rule="evenodd" d="M6.91559 0.412598C8.47499 0.412598 9.98904 0.939484 11.1828 1.89632V1.89628C12.7422 3.14541 13.6594 4.92151 13.7703 6.89617C13.8766 8.84574 13.1484 10.7532 11.7734 12.129L7.21543 16.6302C7.03887 16.8053 6.73264 16.8037 6.55607 16.6286L2.06246 12.1322C0.684343 10.7533 -0.0453502 8.84429 0.0624619 6.89621C0.171822 4.92163 1.09058 3.14553 2.64839 1.89632C3.84059 0.939484 5.35623 0.412598 6.91559 0.412598ZM3.8531 7.27212C3.8531 8.96116 5.2265 10.3346 6.91558 10.3346C8.60462 10.3346 9.97962 8.9612 9.97806 7.27212C9.97806 5.58308 8.60466 4.20964 6.91558 4.20964C5.22654 4.20964 3.8531 5.58304 3.8531 7.27212Z" fill="white"/>
<path d="M6.9156 5.7793C6.09216 5.7793 5.4234 6.44806 5.4234 7.2715C5.4234 8.09494 6.09216 8.7637 6.9156 8.7637C7.73904 8.7637 8.4078 8.09494 8.4078 7.2715C8.4078 6.44806 7.73904 5.7793 6.9156 5.7793Z" fill="white"/>
</g>
</svg>

<svg width="14" height="17" fill="none" xmlns="http://www.w3.org/2000/svg"><g opacity=".299" fill="#fff"><path fill-rule="evenodd" clip-rule="evenodd" d="M6.916.413c1.559 0 3.073.526 4.267 1.483 1.56 1.25 2.476 3.026 2.587 5a6.88 6.88 0 01-1.997 5.233L7.215 16.63a.48.48 0 01-.659-.001l-4.494-4.497a6.88 6.88 0 01-2-5.236c.11-1.974 1.029-3.75 2.586-5A6.834 6.834 0 016.916.413zm-3.063 6.86a3.065 3.065 0 003.063 3.062 3.064 3.064 0 003.062-3.063A3.065 3.065 0 006.916 4.21a3.065 3.065 0 00-3.063 3.062z"/><path d="M6.916 5.78a1.493 1.493 0 10.001 2.985 1.493 1.493 0 00-.001-2.986z"/></g></svg>
